fs/multiplier_1_2x_48_filled.svg

<svg viewBox="0 0 48 48" fill="none" xmlns="http://www.w3.org/2000/svg" height="1em" width="1em">
  <path d="M20.3407 20.2415C21.1577 20.3288 21.8914 19.7429 21.9893 18.9297C21.9902 18.9241 21.9925 18.91 21.9967 18.8884C22.0061 18.8403 22.0247 18.7584 22.0575 18.6541C22.1244 18.442 22.2429 18.1613 22.4445 17.8859C22.7995 17.4009 23.5351 16.75 25.2492 16.75C26.7929 16.75 27.8018 17.2561 28.3772 17.937C28.9517 18.6167 29.2875 19.6993 29.0218 21.246C28.8718 22.1189 28.4484 22.6174 27.7467 23.0514C27.1509 23.4199 26.4878 23.6721 25.666 23.9847C25.3323 24.1116 24.9725 24.2485 24.5804 24.4072C23.3407 24.9087 21.8965 25.6003 20.7891 26.894C19.6455 28.23 19.0001 30.0361 19.0001 32.5C19.0001 32.8978 19.1582 33.2793 19.4395 33.5606C19.7208 33.842 20.1023 34 20.5001 34H30.5001C31.3286 34 32.0001 33.3284 32.0001 32.5C32.0001 31.6716 31.3286 31 30.5001 31H22.1201C22.2993 29.9869 22.6599 29.3218 23.0682 28.8449C23.687 28.122 24.5643 27.6499 25.7055 27.1882C25.9467 27.0906 26.2128 26.9896 26.4934 26.8831C27.4026 26.5381 28.464 26.1353 29.3249 25.6027C30.5875 24.8217 31.6522 23.653 31.9785 21.754C32.357 19.5507 31.9429 17.5083 30.6685 16.0005C29.3952 14.4939 27.4565 13.75 25.2492 13.75C22.5884 13.75 20.9494 14.8491 20.0236 16.1141C19.5848 16.7136 19.3363 17.308 19.1963 17.7522C19.1258 17.976 19.0809 18.1675 19.0528 18.3108C19.0387 18.3828 19.0287 18.4432 19.0217 18.4903C19.0182 18.5138 19.0154 18.5341 19.0133 18.5509L19.0105 18.5734L19.0095 18.5827L19.009 18.5868L19.0088 18.5887C19.0085 18.5912 18.9768 18.8884 19.0086 18.5906C18.9206 19.4143 19.517 20.1535 20.3407 20.2415ZM36.5607 24.4393C35.9749 23.8535 35.0251 23.8535 34.4393 24.4393C33.8536 25.0251 33.8536 25.9749 34.4393 26.5607L36.8787 29L34.4393 31.4393C33.8536 32.0251 33.8536 32.9749 34.4393 33.5607C35.0251 34.1464 35.9749 34.1464 36.5607 33.5607L39 31.1213L41.4393 33.5607C42.0251 34.1464 42.9749 34.1464 43.5607 33.5607C44.1464 32.9749 44.1464 32.0251 43.5607 31.4393L41.1213 29L43.5607 26.5607C44.1464 25.9749 44.1464 25.0251 43.5607 24.4393C42.9749 23.8535 42.0251 23.8535 41.4393 24.4393L39 26.8787L36.5607 24.4393ZM16.5 32.75C16.5 33.4403 15.9404 34 15.25 34C14.5596 34 14 33.4403 14 32.75C14 32.0596 14.5596 31.5 15.25 31.5C15.9404 31.5 16.5 32.0596 16.5 32.75ZM10.9006 14.0544C11.5504 14.2344 12.0002 14.8258 12.0002 15.5V32.5C12.0002 33.3284 11.3287 34 10.5002 34C9.6718 34 9.00023 33.3284 9.00023 32.5V19.6723C8.23792 20.406 7.32347 21.1553 6.27197 21.7862C5.5616 22.2125 4.64021 21.9821 4.21399 21.2717C3.78777 20.5614 4.01811 19.64 4.72848 19.2138C6.10121 18.3901 7.22953 17.2705 8.02702 16.328C8.42167 15.8616 8.72535 15.4504 8.92783 15.1599C9.02887 15.0149 9.10413 14.9008 9.15235 14.8259C9.17645 14.7885 9.19374 14.761 9.20407 14.7443L9.21463 14.7272L9.21529 14.7261C9.5626 14.1494 10.2517 13.8747 10.9006 14.0544Z" fill="#212121"/>
</svg>

<svg viewBox="0 0 48 48" fill="none" xmlns="http://www.w3.org/2000/svg" height="1em" width="1em">
  <path d="M20.34 20.241a1.5 1.5 0 0 0 1.65-1.311l.007-.042a2.676 2.676 0 0 1 .448-1.003c.354-.484 1.09-1.135 2.804-1.135 1.544 0 2.553.506 3.128 1.187.575.68.91 1.762.645 3.309-.15.873-.574 1.371-1.275 1.805-.596.369-1.26.621-2.081.934-.334.127-.694.264-1.086.422-1.24.502-2.683 1.193-3.79 2.487C19.644 28.23 19 30.036 19 32.5a1.5 1.5 0 0 0 1.5 1.5h10a1.5 1.5 0 1 0 0-3h-8.38c.18-1.013.54-1.678.948-2.155.619-.723 1.496-1.195 2.637-1.657.242-.097.508-.198.788-.305.91-.345 1.971-.748 2.832-1.28 1.262-.781 2.327-1.95 2.654-3.849.378-2.203-.036-4.246-1.31-5.754-1.274-1.506-3.213-2.25-5.42-2.25-2.66 0-4.3 1.1-5.225 2.364a5.674 5.674 0 0 0-.971 2.197 3.985 3.985 0 0 0-.04.24l-.003.022v.01l-.001.004v.002c0 .002-.032.3 0 .002a1.5 1.5 0 0 0 1.332 1.65Zm16.22 4.198a1.5 1.5 0 0 0-2.12 2.122L36.878 29l-2.44 2.44a1.5 1.5 0 0 0 2.122 2.12L39 31.122l2.44 2.44a1.5 1.5 0 0 0 2.12-2.122L41.122 29l2.44-2.44a1.5 1.5 0 0 0-2.122-2.12L39 26.878l-2.44-2.44ZM16.5 32.75a1.25 1.25 0 1 1-2.5 0 1.25 1.25 0 0 1 2.5 0Zm-5.6-18.696A1.5 1.5 0 0 1 12 15.5v17a1.5 1.5 0 1 1-3 0V19.672a15.396 15.396 0 0 1-2.728 2.114 1.5 1.5 0 1 1-1.544-2.572c1.373-.824 2.502-1.944 3.299-2.886a15.938 15.938 0 0 0 1.125-1.502l.052-.082.01-.017h.001a1.5 1.5 0 0 1 1.686-.673Z" fill="#212121"/>
</svg>
